svgs/cco/heart-o.svg

<svg xmlns="http://www.w3.org/2000/svg" viewBox="0 0 16 16" class="symbol symbol-heart-o" aria-labelledby="title" role="img"><title id="title">heart-o icon</title><path d="M8.012 14.812A.711.711 0 0 1 7.5 14.6L1.363 8.409A4.271 4.271 0 0 1 .136 5.194a4.223 4.223 0 0 1 1.55-3.083 4.048 4.048 0 0 1 2.574-.9A4.6 4.6 0 0 1 7.5 2.574l.514.518.515-.518a4.362 4.362 0 0 1 5.812-.463 4.224 4.224 0 0 1 1.551 3.083 4.279 4.279 0 0 1-1.227 3.215L8.52 14.6a.714.714 0 0 1-.508.212zM4.26 2.208a3 3 0 0 0-1.937.674 3.237 3.237 0 0 0-1.189 2.361 3.272 3.272 0 0 0 .94 2.462l5.938 5.987 5.938-5.987a3.276 3.276 0 0 0 .939-2.462A3.237 3.237 0 0 0 13.7 2.882a3.358 3.358 0 0 0-4.466.4l-1.222 1.23-1.224-1.234a3.593 3.593 0 0 0-2.528-1.07z" data-name="Layer 1" role="presentation"/></svg>

<svg xmlns="http://www.w3.org/2000/svg" viewBox="0 0 16 16" aria-labelledby="title" role="img" class="symbol symbol-heart-o"><title id="title">heart-o icon</title><g id="Layer_1" data-name="Layer 1"><path d="M8,14.81a.71.71,0,0,1-.51-.21L1.36,8.41A4.27,4.27,0,0,1,.14,5.19,4.22,4.22,0,0,1,1.69,2.11a4,4,0,0,1,2.57-.9A4.6,4.6,0,0,1,7.5,2.57L8,3.09l.51-.52a4.36,4.36,0,0,1,5.81-.46,4.22,4.22,0,0,1,1.55,3.08,4.28,4.28,0,0,1-1.23,3.22h0L8.52,14.6A.71.71,0,0,1,8,14.81ZM4.26,2.21a3,3,0,0,0-1.94.67A3.24,3.24,0,0,0,1.13,5.24a3.27,3.27,0,0,0,.94,2.46l5.94,6,5.94-6a3.28,3.28,0,0,0,.94-2.46A3.24,3.24,0,0,0,13.7,2.88a3.36,3.36,0,0,0-4.47.4L8,4.51,6.79,3.28A3.59,3.59,0,0,0,4.26,2.21Z" role="presentation"/></g></svg>
